X: 23
M: 3/4
L: 1/4
K: D
dB2 | B2d | dA2 | A2F | A2d | e2f | a3 | a2b |
a2f | a2f | dB2 | d2e | fa2 | A2c |1 d3 :|["Last" dAF | D3 |]
Vagaland".  As du kens, da nordern lights is just anidder name fir
da merrie dancers.


